bernoullicharts/1_3_x_1_1_3_x__bits.svg

<?xml version="1.0" encoding="utf-8" standalone="no"?>
<!DOCTYPE svg PUBLIC "-//W3C//DTD SVG 1.1//EN"
  "http://www.w3.org/Graphics/SVG/1.1/DTD/svg11.dtd">
<!-- Created with matplotlib (https://matplotlib.org/) -->
<svg height="345.6pt" version="1.1" viewBox="0 0 460.8 345.6" width="460.8pt" xmlns="http://www.w3.org/2000/svg" xmlns:xlink="http://www.w3.org/1999/xlink">
 <defs>
  <style type="text/css">
*{stroke-linecap:butt;stroke-linejoin:round;}
  </style>
 </defs>
 <g id="figure_1">
  <g id="patch_1">
   <path d="M 0 345.6 
L 460.8 345.6 
L 460.8 0 
L 0 0 
z
" style="fill:#ffffff;"/>
  </g>
  <g id="axes_1">
   <g id="patch_2">
    <path d="M 57.6 307.584 
L 414.72 307.584 
L 414.72 41.472 
L 57.6 41.472 
z
" style="fill:#ffffff;"/>
   </g>
   <g id="matplotlib.axis_1">
    <g id="xtick_1">
     <g id="line2d_1">
      <defs>
       <path d="M 0 0 
L 0 3.5 
" id="mb3d8e4378a" style="stroke:#000000;stroke-width:0.8;"/>
      </defs>
      <g>
       <use style="stroke:#000000;stroke-width:0.8;" x="73.800255" xlink:href="#mb3d8e4378a" y="307.584"/>
      </g>
     </g>
     <g id="text_1">
      <text style="font-family:DejaVu Sans;font-size:10px;font-style:normal;font-weight:normal;text-anchor:middle;" transform="rotate(-0, 73.800255, 322.182437)" x="73.800255" y="322.182437">0.0</text>
     </g>
    </g>
    <g id="xtick_2">
     <g id="line2d_2">
      <g>
       <use style="stroke:#000000;stroke-width:0.8;" x="138.744153" xlink:href="#mb3d8e4378a" y="307.584"/>
      </g>
     </g>
     <g id="text_2">
      <text style="font-family:DejaVu Sans;font-size:10px;font-style:normal;font-weight:normal;text-anchor:middle;" transform="rotate(-0, 138.744153, 322.182437)" x="138.744153" y="322.182437">0.2</text>
     </g>
    </g>
    <g id="xtick_3">
     <g id="line2d_3">
      <g>
       <use style="stroke:#000000;stroke-width:0.8;" x="203.688051" xlink:href="#mb3d8e4378a" y="307.584"/>
      </g>
     </g>
     <g id="text_3">
      <text style="font-family:DejaVu Sans;font-size:10px;font-style:normal;font-weight:normal;text-anchor:middle;" transform="rotate(-0, 203.688051, 322.182437)" x="203.688051" y="322.182437">0.4</text>
     </g>
    </g>
    <g id="xtick_4">
     <g id="line2d_4">
      <g>
       <use style="stroke:#000000;stroke-width:0.8;" x="268.631949" xlink:href="#mb3d8e4378a" y="307.584"/>
      </g>
     </g>
     <g id="text_4">
      <text style="font-family:DejaVu Sans;font-size:10px;font-style:normal;font-weight:normal;text-anchor:middle;" transform="rotate(-0, 268.631949, 322.182437)" x="268.631949" y="322.182437">0.6</text>
     </g>
    </g>
    <g id="xtick_5">
     <g id="line2d_5">
      <g>
       <use style="stroke:#000000;stroke-width:0.8;" x="333.575847" xlink:href="#mb3d8e4378a" y="307.584"/>
      </g>
     </g>
     <g id="text_5">
      <text style="font-family:DejaVu Sans;font-size:10px;font-style:normal;font-weight:normal;text-anchor:middle;" transform="rotate(-0, 333.575847, 322.182437)" x="333.575847" y="322.182437">0.8</text>
     </g>
    </g>
    <g id="xtick_6">
     <g id="line2d_6">
      <g>
       <use style="stroke:#000000;stroke-width:0.8;" x="398.519745" xlink:href="#mb3d8e4378a" y="307.584"/>
      </g>
     </g>
     <g id="text_6">
      <text style="font-family:DejaVu Sans;font-size:10px;font-style:normal;font-weight:normal;text-anchor:middle;" transform="rotate(-0, 398.519745, 322.182437)" x="398.519745" y="322.182437">1.0</text>
     </g>
    </g>
    <g id="text_7">
     <text style="font-family:DejaVu Sans;font-size:10px;font-style:normal;font-weight:normal;text-anchor:middle;" transform="rotate(-0, 236.16, 335.860562)" x="236.16" y="335.860562">Probability</text>
    </g>
   </g>
   <g id="matplotlib.axis_2">
    <g id="ytick_1">
     <g id="line2d_7">
      <defs>
       <path d="M 0 0 
L -3.5 0 
" id="m889fca3327" style="stroke:#000000;stroke-width:0.8;"/>
      </defs>
      <g>
       <use style="stroke:#000000;stroke-width:0.8;" x="57.6" xlink:href="#m889fca3327" y="270.101333"/>
      </g>
     </g>
     <g id="text_8">
      <text style="font-family:DejaVu Sans;font-size:10px;font-style:normal;font-weight:normal;text-anchor:end;" transform="rotate(-0, 50.6, 273.900552)" x="50.6" y="273.900552">2.0</text>
     </g>
    </g>
    <g id="ytick_2">
     <g id="line2d_8">
      <g>
       <use style="stroke:#000000;stroke-width:0.8;" x="57.6" xlink:href="#m889fca3327" y="220.323556"/>
      </g>
     </g>
     <g id="text_9">
      <text style="font-family:DejaVu Sans;font-size:10px;font-style:normal;font-weight:normal;text-anchor:end;" transform="rotate(-0, 50.6, 224.122774)" x="50.6" y="224.122774">2.2</text>
     </g>
    </g>
    <g id="ytick_3">
     <g id="line2d_9">
      <g>
       <use style="stroke:#000000;stroke-width:0.8;" x="57.6" xlink:href="#m889fca3327" y="170.545778"/>
      </g>
     </g>
     <g id="text_10">
      <text style="font-family:DejaVu Sans;font-size:10px;font-style:normal;font-weight:normal;text-anchor:end;" transform="rotate(-0, 50.6, 174.344997)" x="50.6" y="174.344997">2.4</text>
     </g>
    </g>
    <g id="ytick_4">
     <g id="line2d_10">
      <g>
       <use style="stroke:#000000;stroke-width:0.8;" x="57.6" xlink:href="#m889fca3327" y="120.768"/>
      </g>
     </g>
     <g id="text_11">
      <text style="font-family:DejaVu Sans;font-size:10px;font-style:normal;font-weight:normal;text-anchor:end;" transform="rotate(-0, 50.6, 124.567219)" x="50.6" y="124.567219">2.6</text>
     </g>
    </g>
    <g id="ytick_5">
     <g id="line2d_11">
      <g>
       <use style="stroke:#000000;stroke-width:0.8;" x="57.6" xlink:href="#m889fca3327" y="70.990222"/>
      </g>
     </g>
     <g id="text_12">
      <text style="font-family:DejaVu Sans;font-size:10px;font-style:normal;font-weight:normal;text-anchor:end;" transform="rotate(-0, 50.6, 74.789441)" x="50.6" y="74.789441">2.8</text>
     </g>
    </g>
    <g id="text_13">
     <text style="font-family:DejaVu Sans;font-size:10px;font-style:normal;font-weight:normal;text-anchor:middle;" transform="rotate(-90, 28.617187, 174.528)" x="28.617187" y="174.528">Average Bits Consumed Per Call</text>
    </g>
   </g>
   <g id="line2d_12">
    <path clip-path="url(#pfcd67a07c7)" d="M 73.832727 128.234667 
L 77.112066 118.776889 
L 80.391405 119.274667 
L 83.670744 95.879111 
L 86.950083 53.568 
L 90.229421 60.039111 
L 93.50876 105.336889 
L 96.788099 95.879111 
L 100.067438 79.452444 
L 103.346777 120.270222 
L 106.626116 151.630222 
L 109.905455 182.492444 
L 113.184793 121.265778 
L 116.464132 132.216889 
L 119.743471 135.701333 
L 123.02281 122.759111 
L 126.302149 151.630222 
L 129.581488 162.083556 
L 132.860826 137.194667 
L 136.140165 153.621333 
L 139.419504 128.732444 
L 142.698843 148.643556 
L 145.978182 128.732444 
L 149.257521 92.394667 
L 152.53686 159.594667 
L 155.816198 186.972444 
L 159.095537 157.105778 
L 162.374876 168.554667 
L 165.654215 147.150222 
L 168.933554 124.252444 
L 172.212893 165.070222 
L 175.492231 145.159111 
L 178.77157 172.536889 
L 182.050909 144.163556 
L 185.330248 112.803556 
L 188.609587 185.479111 
L 191.888926 157.105778 
L 195.168264 178.012444 
L 198.447603 208.874667 
L 201.726942 180.003556 
L 205.006281 193.941333 
L 208.28562 171.541333 
L 211.564959 218.830222 
L 214.844298 195.434667 
L 218.123636 163.576889 
L 221.402975 231.274667 
L 224.682314 190.954667 
L 227.961653 215.843556 
L 231.240992 224.305778 
L 234.520331 177.016889 
L 237.799669 168.056889 
L 241.079008 198.919111 
L 244.358347 165.568 
L 247.637686 177.016889 
L 250.917025 203.399111 
L 254.196364 200.412444 
L 257.475702 244.216889 
L 260.755041 213.852444 
L 264.03438 218.830222 
L 267.313719 190.954667 
L 270.593058 231.274667 
L 273.872397 208.874667 
L 277.151736 203.896889 
L 280.431074 230.776889 
L 283.710413 213.852444 
L 286.989752 222.314667 
L 290.269091 223.310222 
L 293.54843 209.870222 
L 296.827769 233.265778 
L 300.107107 225.799111 
L 303.386446 199.416889 
L 306.665785 198.919111 
L 309.945124 229.781333 
L 313.224463 235.256889 
L 316.503802 265.123556 
L 319.78314 236.750222 
L 323.062479 207.879111 
L 326.341818 238.741333 
L 329.621157 295.488 
L 332.900496 256.661333 
L 336.179835 229.781333 
L 339.459174 224.803556 
L 342.738512 260.145778 
L 346.017851 237.248 
L 349.29719 253.674667 
L 352.576529 262.634667 
L 355.855868 268.608 
L 359.135207 261.639111 
L 362.414545 292.003556 
L 365.693884 228.288 
L 368.973223 265.123556 
L 372.252562 253.674667 
L 375.531901 271.594667 
L 378.81124 266.119111 
L 382.090579 232.270222 
L 385.369917 268.608 
L 388.649256 271.594667 
L 391.928595 279.061333 
L 395.207934 260.145778 
L 398.487273 263.630222 
" style="fill:none;stroke:#1f77b4;stroke-linecap:square;stroke-width:1.5;"/>
   </g>
   <g id="patch_3">
    <path d="M 57.6 307.584 
L 57.6 41.472 
" style="fill:none;stroke:#000000;stroke-linecap:square;stroke-linejoin:miter;stroke-width:0.8;"/>
   </g>
   <g id="patch_4">
    <path d="M 414.72 307.584 
L 414.72 41.472 
" style="fill:none;stroke:#000000;stroke-linecap:square;stroke-linejoin:miter;stroke-width:0.8;"/>
   </g>
   <g id="patch_5">
    <path d="M 57.6 307.584 
L 414.72 307.584 
" style="fill:none;stroke:#000000;stroke-linecap:square;stroke-linejoin:miter;stroke-width:0.8;"/>
   </g>
   <g id="patch_6">
    <path d="M 57.6 41.472 
L 414.72 41.472 
" style="fill:none;stroke:#000000;stroke-linecap:square;stroke-linejoin:miter;stroke-width:0.8;"/>
   </g>
   <g id="text_14">
    <text style="font-family:DejaVu Sans;font-size:12px;font-style:normal;font-weight:normal;text-anchor:middle;" transform="rotate(-0, 236.16, 35.472)" x="236.16" y="35.472">Avg. Bits Consumed by (1/3)*x/(1+(1/3)*x) Algorithm</text>
   </g>
   <g id="legend_1">
    <g id="patch_7">
     <path d="M 280.174688 64.150125 
L 407.72 64.150125 
Q 409.72 64.150125 409.72 62.150125 
L 409.72 48.472 
Q 409.72 46.472 407.72 46.472 
L 280.174688 46.472 
Q 278.174688 46.472 278.174688 48.472 
L 278.174688 62.150125 
Q 278.174688 64.150125 280.174688 64.150125 
z
" style="fill:#ffffff;opacity:0.8;stroke:#cccccc;stroke-linejoin:miter;"/>
    </g>
    <g id="line2d_13">
     <path d="M 282.174688 54.570438 
L 302.174688 54.570438 
" style="fill:none;stroke:#1f77b4;stroke-linecap:square;stroke-width:1.5;"/>
    </g>
    <g id="line2d_14"/>
    <g id="text_15">
     <text style="font-family:DejaVu Sans;font-size:10px;font-style:normal;font-weight:normal;text-anchor:start;" transform="rotate(-0, 310.174688, 58.070438)" x="310.174688" y="58.070438">(1/3)*x/(1+(1/3)*x)</text>
    </g>
   </g>
  </g>
 </g>
 <defs>
  <clipPath id="pfcd67a07c7">
   <rect height="266.112" width="357.12" x="57.6" y="41.472"/>
  </clipPath>
 </defs>
</svg>

<svg height="460.8" viewBox="0 0 460.8 345.6" width="614.4" xmlns="http://www.w3.org/2000/svg" xmlns:xlink="http://www.w3.org/1999/xlink"><defs><style>*{stroke-linecap:butt;stroke-linejoin:round}</style></defs><g id="figure_1"><path d="M0 345.6h460.8V0H0z" fill="#fff" id="patch_1"/><g id="axes_1"><path d="M57.6 307.584h357.12V41.472H57.6z" fill="#fff" id="patch_2"/><g id="matplotlib.axis_1"><g id="xtick_1"><g id="line2d_1"><defs><path d="M0 0v3.5" id="mb3d8e4378a" stroke="#000" stroke-width=".8"/></defs><use x="73.8" xlink:href="#mb3d8e4378a" y="307.584" stroke="#000" stroke-width=".8"/></g><text x="73.8" y="322.182" font-family="DejaVu Sans" font-size="10" font-weight="400" text-anchor="middle" id="text_1">0.0</text></g><g id="xtick_2"><use x="138.744" xlink:href="#mb3d8e4378a" y="307.584" stroke="#000" stroke-width=".8" id="line2d_2"/><text x="138.744" y="322.182" font-family="DejaVu Sans" font-size="10" font-weight="400" text-anchor="middle" id="text_2">0.2</text></g><g id="xtick_3"><use x="203.688" xlink:href="#mb3d8e4378a" y="307.584" stroke="#000" stroke-width=".8" id="line2d_3"/><text x="203.688" y="322.182" font-family="DejaVu Sans" font-size="10" font-weight="400" text-anchor="middle" id="text_3">0.4</text></g><g id="xtick_4"><use x="268.632" xlink:href="#mb3d8e4378a" y="307.584" stroke="#000" stroke-width=".8" id="line2d_4"/><text x="268.632" y="322.182" font-family="DejaVu Sans" font-size="10" font-weight="400" text-anchor="middle" id="text_4">0.6</text></g><g id="xtick_5"><use x="333.576" xlink:href="#mb3d8e4378a" y="307.584" stroke="#000" stroke-width=".8" id="line2d_5"/><text x="333.576" y="322.182" font-family="DejaVu Sans" font-size="10" font-weight="400" text-anchor="middle" id="text_5">0.8</text></g><g id="xtick_6"><use x="398.52" xlink:href="#mb3d8e4378a" y="307.584" stroke="#000" stroke-width=".8" id="line2d_6"/><text x="398.52" y="322.182" font-family="DejaVu Sans" font-size="10" font-weight="400" text-anchor="middle" id="text_6">1.0</text></g><text x="236.16" y="335.861" font-family="DejaVu Sans" font-size="10" font-weight="400" text-anchor="middle" id="text_7">Probability</text></g><g id="matplotlib.axis_2"><g id="ytick_1"><g id="line2d_7"><defs><path d="M0 0h-3.5" id="m889fca3327" stroke="#000" stroke-width=".8"/></defs><use x="57.6" xlink:href="#m889fca3327" y="270.101" stroke="#000" stroke-width=".8"/></g><text x="50.6" y="273.901" font-family="DejaVu Sans" font-size="10" font-weight="400" text-anchor="end" id="text_8">2.0</text></g><g id="ytick_2"><use x="57.6" xlink:href="#m889fca3327" y="220.324" stroke="#000" stroke-width=".8" id="line2d_8"/><text x="50.6" y="224.123" font-family="DejaVu Sans" font-size="10" font-weight="400" text-anchor="end" id="text_9">2.2</text></g><g id="ytick_3"><use x="57.6" xlink:href="#m889fca3327" y="170.546" stroke="#000" stroke-width=".8" id="line2d_9"/><text x="50.6" y="174.345" font-family="DejaVu Sans" font-size="10" font-weight="400" text-anchor="end" id="text_10">2.4</text></g><g id="ytick_4"><use x="57.6" xlink:href="#m889fca3327" y="120.768" stroke="#000" stroke-width=".8" id="line2d_10"/><text x="50.6" y="124.567" font-family="DejaVu Sans" font-size="10" font-weight="400" text-anchor="end" id="text_11">2.6</text></g><g id="ytick_5"><use x="57.6" xlink:href="#m889fca3327" y="70.99" stroke="#000" stroke-width=".8" id="line2d_11"/><text x="50.6" y="74.789" font-family="DejaVu Sans" font-size="10" font-weight="400" text-anchor="end" id="text_12">2.8</text></g><text transform="rotate(-90 28.617 174.528)" x="28.617" y="174.528" font-family="DejaVu Sans" font-size="10" font-weight="400" text-anchor="middle" id="text_13">Average Bits Consumed Per Call</text></g><path clip-path="url(#pfcd67a07c7)" d="M73.833 128.235l3.28-9.458 3.278.498 3.28-23.396 3.28-42.311 3.278 6.471 3.28 45.298 3.28-9.458 3.278-16.427 3.28 40.818 3.28 31.36 3.278 30.862 3.28-61.226 3.28 10.95 3.278 3.485 3.28-12.942 3.28 28.871 3.278 10.454 3.28-24.89 3.28 16.427 3.279-24.889 3.279 19.912 3.28-19.912 3.279-36.337 3.279 67.2 3.28 27.377 3.279-29.866 3.279 11.449 3.28-21.405 3.279-22.898 3.279 40.818 3.28-19.91 3.279 27.377 3.279-28.373 3.28-31.36 3.279 72.675 3.279-28.373 3.28 20.906 3.279 30.863 3.279-28.871 3.28 13.937 3.279-22.4 3.279 47.29 3.28-23.396 3.279-31.858 3.279 67.698 3.28-40.32 3.279 24.889 3.279 8.462 3.28-47.29 3.279-8.96 3.279 30.863 3.28-33.351 3.279 11.449 3.279 26.382 3.28-2.987 3.279 43.805 3.279-30.365 3.28 4.978 3.279-27.875 3.28 40.32 3.278-22.4 3.28-4.978 3.28 26.88 3.278-16.925 3.28 8.463 3.28.995 3.278-13.44 3.28 23.396 3.28-7.467 3.278-26.382 3.28-.498 3.28 30.862 3.278 5.476 3.28 29.867 3.28-28.374 3.278-28.87 3.28 30.861 3.28 56.747 3.278-38.827 3.28-26.88 3.28-4.977 3.279 35.342 3.279-22.898 3.28 16.427 3.279 8.96 3.279 5.973 3.28-6.969 3.279 30.365 3.279-63.716 3.28 36.836 3.279-11.45 3.279 17.92 3.28-5.475 3.279-33.849 3.279 36.338 3.28 2.987 3.279 7.466 3.279-18.915 3.28 3.484" fill="none" stroke="#1f77b4" stroke-linecap="square" stroke-width="1.5" id="line2d_12"/><path d="M57.6 307.584V41.472" fill="none" stroke="#000" stroke-linecap="square" stroke-width=".8" id="patch_3"/><path d="M414.72 307.584V41.472" fill="none" stroke="#000" stroke-linecap="square" stroke-width=".8" id="patch_4"/><path d="M57.6 307.584h357.12" fill="none" stroke="#000" stroke-linecap="square" stroke-width=".8" id="patch_5"/><path d="M57.6 41.472h357.12" fill="none" stroke="#000" stroke-linecap="square" stroke-width=".8" id="patch_6"/><text x="236.16" y="35.472" font-family="DejaVu Sans" font-size="12" font-weight="400" text-anchor="middle" id="text_14">Avg. Bits Consumed by (1/3)*x/(1+(1/3)*x) Algorithm</text><g id="legend_1"><path d="M280.175 64.15H407.72q2 0 2-2V48.472q0-2-2-2H280.175q-2 0-2 2V62.15q0 2 2 2z" fill="#fff" opacity=".8" stroke="#ccc" id="patch_7"/><path d="M282.175 54.57h20" fill="none" stroke="#1f77b4" stroke-linecap="square" stroke-width="1.5" id="line2d_13"/><text x="310.175" y="58.07" font-family="DejaVu Sans" font-size="10" font-weight="400" id="text_15">(1/3)*x/(1+(1/3)*x)</text></g></g></g><defs><clipPath id="pfcd67a07c7"><path d="M57.6 41.472h357.12v266.112H57.6z"/></clipPath></defs></svg>
